X:1
T:Anglais efter Per Nilsson Dahlberg
T:(SvL Skne nr 188)
S:efter Per Nilsson Dahlberg
S:Svenska Ltar
R:Anglais
Z:Patrik Mnsson, 2009-01-03
O:Nym, Skne
M:2/4
L:1/16
K:G
(gB)dg (bB)dg | (fA)df (aA)df | (gB)dg (bB)dg | (fA)df g4 :|
K:D
|: (ad)fa d'4 | d'2c'b (ab)c'b | (ba)(ag) f2d'2 | a2bc' d'4 :|
